usr/share/icons/biglinux-icons-material-dark/symbolic/status/fcitx-wubi-symbolic.svg

<svg xmlns="http://www.w3.org/2000/svg" viewBox="0 0 22 22">
  <defs id="defs3051">
    <style type="text/css" id="current-color-scheme">
      .ColorScheme-Text {
        color:#232629;
      }
      </style>
  </defs>
    <path
       style="fill:currentColor;fill-opacity:1;stroke:none" 
       d="M 3 3.0019531 L 3 19 L 19 19 L 19 3.0019531 L 3 3.0019531 z M 4 4 L 18 4 L 18 18 L 4 18 L 4 4 z M 6 6 L 6 7 L 9.8769531 7 L 9.2109375 10 L 7 10 L 7 11 L 8.9882812 11 L 8.0996094 15 L 6 15 L 6 16 L 16 16 L 16 15 L 14.5 15 L 14.5 10 L 10.236328 10 L 10.902344 7 L 15 7 L 15 6 L 6 6 z M 10.013672 11 L 13.5 11 L 13.5 15 L 9.1230469 15 L 10.013672 11 z "
     class="ColorScheme-Text"
        />
</svg>

<svg xmlns="http://www.w3.org/2000/svg" viewBox="0 0 22 22">
<defs id="defs3051">
<style id="current-color-scheme" type="text/css">
.ColorScheme-Contrast{color:#232629}
</style>
</defs>
<path d="M3 3.002V19h16V3.002zM4 4h14v14H4zm2 2v1h3.877l-.666 3H7v1h1.988L8.1 15H6v1h10v-1h-1.5v-5h-4.264l.666-3H15V6zm4.014 5H13.5v4H9.123z" class="ColorScheme-Contrast" style="fill:currentColor;fill-opacity:1;stroke:none"/>
</svg>
